libs/ui/packages/crypto-icons/src/svg/WINGS.svg

<svg width="24" height="24" viewBox="0 0 24 24" fill="none">
<path d="M14.178 11.4318L11.8942 13.2048L10.959 9.96101L5.54095 8.50977L12.6517 8.87502L14.178 11.4318Z" fill="#0DC9F7" fill-opacity="0.2"/>
<path d="M6.20251 17.6224L18.4395 8.12512L19.5 10.4846L18.1088 10.0999L18.06 12.5479L6.20251 17.6224Z" fill="#0DC9F7" fill-opacity="0.5"/>
<path d="M17.097 12.9626L13.5367 6.84181L4.5 6.37756L11.3872 8.22331L13.2547 14.5908L17.097 12.9626Z" fill="#0DC9F7"/>
</svg>

<svg width="24" height="24" viewBox="0 0 24 24" fill="none"><path fill="#0dc9f7" fill-opacity=".2" d="m14.178 11.432-2.284 1.773-.935-3.244L5.541 8.51l7.11.365z"/><path fill="#0dc9f7" fill-opacity=".5" d="M6.203 17.622 18.44 8.125l1.06 2.36-1.391-.385-.049 2.448z"/><path fill="#0dc9f7" d="m17.097 12.963-3.56-6.121L4.5 6.378l6.887 1.845 1.868 6.368z"/></svg>
